!!! OTL: Berkowitz281
!!! Chapter: 1
!!! Section: II
!!! Page: 67
!!! Mode: 
!!! Encoder: DJB
**kern
*staff1
*I"Piano
=1-
*clefC3
*k[b-e-]
*B-:
*M4/4
8a\L
16a\L
16g\JJ
16a\LL
16b-\
16a\
16g\JJ
8f\L
8c\J
8c\L
16c\L
16d\JJ
=2
16e-\LL
16d\
16e-\
16f\JJ
16e-\LL
16d\
16c\
16B-\JJ
4.c\
8a\
=3
16a\LL
16g\
16a\
16b-\JJ
16cc\LL
16b-\
16a\
16g\JJ
8f\L
8c\J
8c\L
16c\L
16d\JJ
=4
!!linebreak:original
16e-\LL
16f\
16g\
16f\JJ
16e-\LL
16d\
16c\
16B-\JJ
4.c\
8e-\
=5
16e-\LL
16d\
16c\
16B-\JJ
8.c\L
16d\Jk
16e-\LL
16d\
16c\
16B-\JJ
8c\L
8g\J
=6
4.f\
8c\
4.c\
8d\
=7
8e-\L
16d\L
16c\JJ
8d\L
8c\J
8B-\L
8e-\
8g\
8e-\J
=8
1f
==
*-
